X:419
T:An Lurad\'an
T:Luachrach\'an, The
T:Junior Crehan's
T:An Luathrad\'an
R:jig
C:Martin "Junior" Crehan (1908-1998)
H:Also played in D, #285
Z:id:hn-jig-419
M:6/8
K:G
g | edB dBA | GBG AGE | DEG AGA | BAG AB/c/d |
edB dBA | GBG AGE | DEG AGA | BGF G2 :|
|: A | GBd ~g3 | aga bge | gab age | deg a2b |
age edB | dBG AGE | DEG AGA | BGF G2 :|
P:variations
|: g | edB dBA | GB/A/G AGE | DEG AGA | BAG ABd |
edB dBA | GAB AGE | DEG ~A3 | BGG G2 :|
|: A | GBd g2b | aga bge | gab age | deg a2b |
age edB | GBG AGE | DEG ~A3 | BGG G2 :|

